flaticon/travel/oxygen-tank.svg

<svg xmlns="http://www.w3.org/2000/svg" width="32" height="32" viewBox="0 0 24 24">
    <path d="M 22.589844 18.613281 C 22.511719 17.953125 22.03125 17.421875 21.398438 17.257812 L 21.398438 16.976562 C 21.636719 17.113281 21.90625 17.199219 22.199219 17.199219 C 23.082031 17.199219 23.800781 16.480469 23.800781 15.601562 C 23.800781 14.71875 23.082031 14 22.199219 14 C 21.90625 14 21.636719 14.085938 21.398438 14.222656 L 21.398438 8.398438 C 21.398438 6.195312 19.605469 4.398438 17.398438 4.398438 L 14.601562 4.398438 L 14.601562 3.601562 L 13.398438 3.601562 L 13.398438 2.976562 C 13.636719 3.113281 13.90625 3.199219 14.199219 3.199219 C 15.082031 3.199219 15.800781 2.480469 15.800781 1.601562 C 15.800781 0.71875 15.082031 0 14.199219 0 C 13.71875 0 13.292969 0.21875 13 0.554688 C 12.707031 0.21875 12.28125 0 11.800781 0 C 10.917969 0 10.199219 0.71875 10.199219 1.601562 C 10.199219 2.480469 10.917969 3.199219 11.800781 3.199219 C 12.09375 3.199219 12.363281 3.113281 12.601562 2.976562 L 12.601562 3.601562 L 11.398438 3.601562 L 11.398438 4.398438 L 5.800781 4.398438 L 5.800781 3.601562 L 4.601562 3.601562 L 4.601562 2.976562 C 4.835938 3.113281 5.105469 3.199219 5.398438 3.199219 C 6.28125 3.199219 7 2.480469 7 1.601562 C 7 0.71875 6.28125 0 5.398438 0 C 4.921875 0 4.492188 0.21875 4.199219 0.554688 C 3.90625 0.21875 3.480469 0 3 0 C 2.117188 0 1.398438 0.71875 1.398438 1.601562 C 1.398438 2.480469 2.117188 3.199219 3 3.199219 C 3.292969 3.199219 3.5625 3.113281 3.800781 2.976562 L 3.800781 3.601562 L 2.601562 3.601562 L 2.601562 6 L 3 6 L 3 6.464844 C 1.335938 6.980469 0.199219 8.507812 0.199219 10.277344 L 0.199219 22.390625 C 0.199219 23.277344 0.921875 24 1.808594 24 L 6.59375 24 C 7.480469 24 8.199219 23.277344 8.199219 22.390625 L 8.199219 21.199219 L 9 21.199219 L 9 22.390625 C 9 23.277344 9.722656 24 10.605469 24 L 15.394531 24 C 16.277344 24 17 23.277344 17 22.390625 L 17 10.398438 C 17 8.605469 15.839844 7 14.199219 6.46875 L 14.199219 6 L 14.601562 6 L 14.601562 5.199219 L 17.398438 5.199219 C 19.164062 5.199219 20.601562 6.636719 20.601562 8.398438 L 20.601562 17.257812 C 19.96875 17.421875 19.488281 17.953125 19.410156 18.613281 C 18.917969 18.894531 18.601562 19.421875 18.601562 20 C 18.601562 20.578125 18.917969 21.105469 19.410156 21.386719 C 19.503906 22.179688 20.179688 22.800781 21 22.800781 C 21.820312 22.800781 22.496094 22.179688 22.589844 21.386719 C 23.082031 21.105469 23.398438 20.578125 23.398438 20 C 23.398438 19.421875 23.082031 18.894531 22.589844 18.613281 Z M 14.199219 0.800781 C 14.640625 0.800781 15 1.160156 15 1.601562 C 15 2.042969 14.640625 2.398438 14.199219 2.398438 C 13.757812 2.398438 13.398438 2.042969 13.398438 1.601562 C 13.398438 1.160156 13.757812 0.800781 14.199219 0.800781 Z M 11.800781 2.398438 C 11.359375 2.398438 11 2.042969 11 1.601562 C 11 1.160156 11.359375 0.800781 11.800781 0.800781 C 12.242188 0.800781 12.601562 1.160156 12.601562 1.601562 C 12.601562 2.042969 12.242188 2.398438 11.800781 2.398438 Z M 5.398438 0.800781 C 5.839844 0.800781 6.199219 1.160156 6.199219 1.601562 C 6.199219 2.042969 5.839844 2.398438 5.398438 2.398438 C 4.957031 2.398438 4.601562 2.042969 4.601562 1.601562 C 4.601562 1.160156 4.957031 0.800781 5.398438 0.800781 Z M 3 2.398438 C 2.558594 2.398438 2.199219 2.042969 2.199219 1.601562 C 2.199219 1.160156 2.558594 0.800781 3 0.800781 C 3.441406 0.800781 3.800781 1.160156 3.800781 1.601562 C 3.800781 2.042969 3.441406 2.398438 3 2.398438 Z M 12.199219 4.398438 L 13.800781 4.398438 L 13.800781 5.199219 L 12.199219 5.199219 Z M 5.398438 6 L 5.800781 6 L 5.800781 5.199219 L 11.398438 5.199219 L 11.398438 6 L 11.800781 6 L 11.800781 6.464844 C 10.222656 6.953125 9.121094 8.347656 9.011719 10 L 8.179688 10 C 8.023438 8.371094 6.917969 6.960938 5.398438 6.46875 Z M 9.800781 13.199219 L 16.199219 13.199219 L 16.199219 18 L 9.800781 18 Z M 9 18.800781 L 9 19.199219 L 8.199219 19.199219 L 8.199219 12 L 9 12 Z M 7.398438 18 L 1 18 L 1 13.199219 L 7.398438 13.199219 Z M 8.199219 10.800781 L 9 10.800781 L 9 11.199219 L 8.199219 11.199219 Z M 3.398438 4.398438 L 5 4.398438 L 5 5.199219 L 3.398438 5.199219 Z M 1 10.277344 C 1 8.773438 2.023438 7.492188 3.488281 7.160156 L 3.800781 7.089844 L 3.800781 6 L 4.601562 6 L 4.601562 7.089844 L 4.910156 7.160156 C 6.351562 7.496094 7.398438 8.859375 7.398438 10.398438 L 7.398438 12.398438 L 1 12.398438 Z M 7.398438 22.390625 C 7.398438 22.835938 7.039062 23.199219 6.59375 23.199219 L 1.808594 23.199219 C 1.363281 23.199219 1 22.839844 1 22.390625 L 1 18.800781 L 7.398438 18.800781 Z M 8.199219 20.398438 L 8.199219 20 L 9 20 L 9 20.398438 Z M 16.199219 22.390625 C 16.199219 22.835938 15.839844 23.199219 15.394531 23.199219 L 10.605469 23.199219 C 10.160156 23.199219 9.800781 22.839844 9.800781 22.390625 L 9.800781 18.800781 L 16.199219 18.800781 Z M 16.199219 10.398438 L 16.199219 12.398438 L 9.800781 12.398438 L 9.800781 10.277344 C 9.800781 8.773438 10.824219 7.492188 12.289062 7.160156 L 12.601562 7.089844 L 12.601562 6 L 13.398438 6 L 13.398438 7.089844 L 13.707031 7.160156 C 15.152344 7.496094 16.199219 8.859375 16.199219 10.398438 Z M 22.199219 14.800781 C 22.640625 14.800781 23 15.160156 23 15.601562 C 23 16.042969 22.640625 16.398438 22.199219 16.398438 C 21.757812 16.398438 21.398438 16.042969 21.398438 15.601562 C 21.398438 15.160156 21.757812 14.800781 22.199219 14.800781 Z M 22.066406 20.75 L 21.800781 20.84375 L 21.800781 21.199219 C 21.800781 21.640625 21.441406 22 21 22 C 20.558594 22 20.199219 21.640625 20.199219 21.199219 L 20.199219 20.84375 L 19.933594 20.75 C 19.613281 20.636719 19.398438 20.332031 19.398438 20 C 19.398438 19.667969 19.613281 19.363281 19.933594 19.25 L 20.199219 19.15625 L 20.199219 18.800781 C 20.199219 18.359375 20.558594 18 21 18 C 21.441406 18 21.800781 18.359375 21.800781 18.800781 L 21.800781 19.15625 L 22.066406 19.25 C 22.386719 19.363281 22.601562 19.667969 22.601562 20 C 22.601562 20.332031 22.386719 20.636719 22.066406 20.75 Z M 22.066406 20.75"/>
    <path d="M 21 18.800781 C 20.777344 18.800781 20.601562 18.980469 20.601562 19.199219 L 20.601562 20.800781 C 20.601562 21.019531 20.777344 21.199219 21 21.199219 C 21.222656 21.199219 21.398438 21.019531 21.398438 20.800781 L 21.398438 19.199219 C 21.398438 18.980469 21.222656 18.800781 21 18.800781 Z M 21 18.800781"/>
</svg>

<svg xmlns="http://www.w3.org/2000/svg" width="32" height="32" viewBox="0 0 24 24">
    <path d="M22.59 18.613a1.598 1.598 0 0 0-1.192-1.355v-.281a1.6 1.6 0 0 0 .801.222c.883 0 1.602-.719 1.602-1.597 0-.883-.719-1.602-1.602-1.602a1.6 1.6 0 0 0-.8.223V8.398c0-2.203-1.794-4-4-4h-2.797v-.796h-1.204v-.625a1.6 1.6 0 0 0 .801.222c.883 0 1.602-.719 1.602-1.597C15.8.719 15.082 0 14.199 0c-.48 0-.906.219-1.199.555A1.589 1.589 0 0 0 11.8 0c-.882 0-1.6.719-1.6 1.602 0 .878.718 1.597 1.6 1.597a1.6 1.6 0 0 0 .802-.222v.625h-1.204v.796H5.801v-.796H4.6v-.625c.235.136.504.222.797.222C6.281 3.2 7 2.48 7 1.602 7 .719 6.281 0 5.398 0 4.922 0 4.492.219 4.2.555A1.589 1.589 0 0 0 3 0c-.883 0-1.602.719-1.602 1.602 0 .878.72 1.597 1.602 1.597a1.6 1.6 0 0 0 .8-.222v.625H2.603V6H3v.465a3.971 3.971 0 0 0-2.8 3.812v12.114C.2 23.277.921 24 1.808 24h4.785c.886 0 1.605-.723 1.605-1.61V21.2H9v1.19c0 .887.723 1.61 1.605 1.61h4.79c.882 0 1.605-.723 1.605-1.61V10.399c0-1.793-1.16-3.398-2.8-3.93V6h.402v-.8h2.796a3.207 3.207 0 0 1 3.204 3.198v8.86a1.598 1.598 0 0 0-1.192 1.355A1.602 1.602 0 0 0 18.602 20c0 .578.316 1.105.808 1.387.094.793.77 1.414 1.59 1.414.82 0 1.496-.621 1.59-1.414.492-.282.808-.809.808-1.387s-.316-1.105-.808-1.387zM14.2.801a.799.799 0 0 1 0 1.598.799.799 0 1 1 0-1.598zm-2.4 1.597a.799.799 0 1 1 0-1.597.799.799 0 0 1 0 1.598zM5.399.801a.799.799 0 1 1 0 0zM3 2.398A.799.799 0 1 1 3 .801a.799.799 0 0 1 0 1.598zm9.2 2h1.6V5.2h-1.6zM5.397 6h.403v-.8h5.597V6h.403v.465A3.958 3.958 0 0 0 9.01 10H8.18c-.157-1.629-1.262-3.04-2.782-3.531zm4.403 7.2h6.398V18H9.801zM9 18.8v.4h-.8V12H9zM7.398 18H1v-4.8h6.398zm.801-7.2H9v.4h-.8zM3.4 4.399H5V5.2H3.398zM1 10.278A3.179 3.179 0 0 1 3.488 7.16l.313-.07V6h.8v1.09l.31.07c1.44.336 2.487 1.7 2.487 3.238v2H1zM7.398 22.39c0 .445-.359.808-.804.808H1.809A.808.808 0 0 1 1 22.391V18.8h6.398zm.801-1.993V20H9v.398zm8 1.993c0 .445-.36.808-.804.808h-4.79a.804.804 0 0 1-.804-.808V18.8h6.398zm0-11.993v2H9.801v-2.12a3.179 3.179 0 0 1 2.488-3.118l.313-.07V6h.796v1.09l.309.07c1.445.336 2.492 1.7 2.492 3.238zm6 4.403a.799.799 0 0 1 0 1.598.799.799 0 1 1 0-1.598zm-.133 5.949l-.265.094v.355a.802.802 0 0 1-1.602 0v-.355l-.265-.094a.802.802 0 0 1-.536-.75c0-.332.215-.637.536-.75l.265-.094v-.355a.802.802 0 0 1 1.602 0v.355l.265.094c.32.113.536.418.536.75a.802.802 0 0 1-.536.75zm0 0"/>
    <path d="M21 18.8a.398.398 0 0 0-.398.4v1.6a.398.398 0 1 0 .796 0v-1.6a.398.398 0 0 0-.398-.4zm0 0"/>
</svg>
